X: 0139
T: Ruffian's Rant - 8x32S
P: the Mod
C: Nan Main
B: Miss Milligan's Miscellany v.1 #0239
B: Originally Ours v.1 p.178 #MMM-39
Z: 2019 John Chambers <jc:trillian.mit.edu>
M: 4/4
L: 1/8
R: strathspey
K: A
%
|: E2 |\
"A"A>c e>f (3efg "D"a>f | "A"e<c c>B "D"A<F "E7"F>E |\
"A"A>c e>f e<f "D"a>f | "A"e<c "E7"c>B "A"A3 E |
"A"A>c e>f e<f "D"a>f | "A"e<c c>B "D"A<F "E7"F>E |\
"A"A>c e>f (3efg "D"a>f | "A"ec "D7"cB "A"A3 ||
e |\
"D"f<d ag/f/ "A"e<c a>c | "G#/E7"d<b "A"c<a "B7"(3BcA "E"(3GFE |\
"D"F>G A>B "E/A"c<A a>c | "E7"e<c c>B "A"A3 e |
"D"f<d ag/f/ "C#/A"e<c a>c | "E7"d<b "E/A"c<a "D#/B7"(3BcA "E"(3GFE |\
"A"A>c e>f "G#/E7"(3efg "D"a>f | "E/A"e<A "E7"B<e "A"a2 :|
